; generated by PrusaSlicer 2.9.0 on 2025-02-03 at 10:08:30 UTC


;
;

;
;
; 

; external perimeters extrusion width = 0.40mm
; perimeters extrusion width = 0.40mm
; infill extrusion width = 0.64mm
; solid infill extrusion width = 0.56mm
; top infill extrusion width = 0.40mm
; support material extrusion width = 0.46mm
; first layer extrusion width = 0.50mm

M73 P0 R46

; printing object xyzCalibration_cube.stl id:0 copy 0
; stop printing object xyzCalibration_cube.stl id:0 copy 0

;TYPE:Custom
M104 S0 ; Stops PS/SS from sending temp waits separately
M140 S0
M117
PRINT_START BED=70 HOTEND=205
PURGE_LINE

;; Guide: https://ellis3dp.com/Print-Tuning-Guide/articles/passing_slicer_variables.html#slicer-start-g-code
G21 ; set units to millimeters
G90 ; use absolute coordinates
M83 ; use relative distances for extrusion
; Filament gcode
M107
;LAYER_CHANGE
;Z:0.18
;HEIGHT:0.18
G1 E-.5 F2400
G1 Z.18 F4200
G1 X134.917 Y142.783
G1 Z.18
G1 E.5 F2400
M204 S1000
;TYPE:Skirt/Brim
;WIDTH:0.5
G1 F1800
G1 X136.558 Y141.357 E.07506
G1 X138.426 Y140.246 E.07504
G1 X140.463 Y139.487 E.07505
G1 X141.24 Y139.295 E.02763
G1 X157.704 Y136.448 E.57689
G1 X159.057 Y136.261 E.04716
G1 X161.223 Y136.268 E.07479
G1 X163.361 Y136.662 E.07506
G1 X164.306 Y136.967 E.03429
G1 X166.27 Y137.901 E.07509
G1 X167.259 Y138.551 E.04086
G1 X168.892 Y139.986 E.07506
G1 X169.546 Y140.733 E.03428
G1 X170.753 Y142.541 E.07506
G1 X171.268 Y143.607 E.04088
G1 X171.934 Y145.676 E.07505
G1 X172.113 Y146.652 E.03426
G1 X172.222 Y148.823 E.07505
G1 X172.117 Y150.002 E.04087
G1 X171.628 Y152.119 E.07502
G1 X171.28 Y153.049 E.03428
G1 X170.261 Y154.968 E.07502
G1 X168.915 Y156.674 E.07503
G1 X167.77 Y157.753 E.05432
G1 X155.655 Y167.831 E.5441
G1 X154.185 Y168.844 E.06164
G1 X153.312 Y169.316 E.03427
G1 X152.224 Y169.783 E.04088
G1 X150.128 Y170.356 E.07502
G1 X147.962 Y170.546 E.07507
G1 X146.97 Y170.503 E.03428
G1 X144.829 Y170.127 E.07505
G1 X143.703 Y169.763 E.04086
G1 X141.747 Y168.815 E.07505
G1 X140.918 Y168.269 E.03427
G1 X139.273 Y166.848 E.07505
G1 X137.906 Y165.152 E.07521
G1 X132.966 Y156.897 E.33216
G1 X132.121 Y154.903 E.07477
G1 X131.642 Y152.783 E.07504
G1 X131.551 Y151.794 E.03429
G1 X131.637 Y149.622 E.07505
G1 X132.109 Y147.5 E.07506
G1 X132.523 Y146.392 E.04084
G1 X133.558 Y144.48 E.07507
G1 X134.88 Y142.83 E.073
M204 S3500
G1 X134.88 Y142.83 F4200
G1 X135.239 Y143.119
M204 S1000
G1 F1800
G1 X135.265 Y143.086 E.00145
G1 X136.846 Y141.717 E.07221
G1 X138.646 Y140.652 E.07221
G1 X140.607 Y139.926 E.0722
G1 X141.318 Y139.749 E.0253
G1 X157.783 Y136.903 E.57692
G1 X159.119 Y136.719 E.04656
G1 X161.203 Y136.729 E.07195
G1 X163.259 Y137.112 E.07221
G1 X164.126 Y137.392 E.03146
G1 X166.017 Y138.286 E.07222
G1 X167.005 Y138.937 E.04085
G1 X168.574 Y140.32 E.07221
G1 X169.174 Y141.005 E.03144
G1 X170.338 Y142.742 E.07219
G1 X170.853 Y143.807 E.04084
G1 X171.49 Y145.799 E.07221
G1 X171.653 Y146.694 E.03141
G1 X171.762 Y148.782 E.07219
G1 X171.657 Y149.961 E.04087
G1 X171.183 Y151.997 E.07218
G1 X170.864 Y152.849 E.03141
G1 X169.887 Y154.698 E.0722
G1 X168.595 Y156.341 E.07217
G1 X167.475 Y157.399 E.0532
G1 X155.36 Y167.476 E.54408
G1 X153.931 Y168.46 E.0599
G1 X153.13 Y168.892 E.03142
G1 X152.042 Y169.359 E.04088
G1 X150.024 Y169.906 E.07219
G1 X149.123 Y170.03 E.0314
G1 X147.031 Y170.046 E.07223
G1 X144.971 Y169.687 E.0722
G1 X143.845 Y169.324 E.04085
G1 X141.965 Y168.408 E.07221
G1 X141.205 Y167.908 E.03141
G1 X139.62 Y166.544 E.0722
G1 X138.301 Y164.915 E.07237
G1 X133.362 Y156.66 E.33214
G1 X132.552 Y154.741 E.07192
G1 X132.096 Y152.7 E.07221
G1 X132.011 Y150.61 E.07222
G1 X132.091 Y149.704 E.0314
G1 X132.541 Y147.662 E.0722
G1 X132.955 Y146.553 E.04087
G1 X133.954 Y144.716 E.0722
G1 X135.201 Y143.166 E.06869
M204 S3500
G1 X135.201 Y143.166 F4200
G1 X135.56 Y143.456
M204 S1000
G1 F1800
G1 X135.613 Y143.389 E.00295
G1 X137.134 Y142.078 E.06933
G1 X138.865 Y141.058 E.06937
G1 X140.75 Y140.365 E.06934
G1 X157.861 Y137.358 E.59984
G1 X159.181 Y137.176 E.04601
G1 X161.183 Y137.19 E.06912
G1 X163.157 Y137.562 E.06936
G1 X163.945 Y137.816 E.02859
G1 X165.763 Y138.671 E.06937
G1 X166.751 Y139.322 E.04085
G1 X168.255 Y140.654 E.06937
G1 X168.801 Y141.276 E.02858
G1 X169.923 Y142.943 E.06938
G1 X170.437 Y144.008 E.04083
G1 X171.045 Y145.922 E.06934
G1 X171.194 Y146.736 E.02857
G1 X171.302 Y148.742 E.06936
G1 X171.198 Y149.92 E.04083
G1 X170.738 Y151.875 E.06934
G1 X170.448 Y152.65 E.02857
G1 X169.513 Y154.427 E.06933
G1 X168.276 Y156.008 E.06931
G1 X167.18 Y157.044 E.05207
G1 X155.065 Y167.122 E.5441
G1 X153.676 Y168.075 E.05816
G1 X152.948 Y168.468 E.02856
G1 X151.86 Y168.935 E.04088
G1 X149.921 Y169.457 E.06933
G1 X149.101 Y169.569 E.02857
G1 X147.093 Y169.588 E.06933
G1 X145.113 Y169.248 E.06936
G1 X143.226 Y168.561 E.06934
G1 X142.183 Y168.002 E.04086
G1 X141.492 Y167.547 E.02857
G1 X139.967 Y166.24 E.06935
G1 X138.697 Y164.678 E.06951
G1 X133.758 Y156.424 E.33211
G1 X132.984 Y154.578 E.06911
G1 X132.55 Y152.617 E.06935
G1 X132.474 Y151.793 E.02857
G1 X132.545 Y149.785 E.06937
G1 X132.974 Y147.823 E.06934
G1 X133.745 Y145.969 E.06933
G1 X134.351 Y144.952 E.04088
G1 X135.522 Y143.502 E.06435
M204 S3500
G1 X135.522 Y143.502 F4200
G1 X135.88 Y143.793
M204 S1000
G1 F1800
G1 X135.961 Y143.692 E.00447
G1 X137.422 Y142.438 E.06648
G1 X139.084 Y141.464 E.06651
G1 X140.893 Y140.803 E.0665
G1 X157.94 Y137.812 E.59757
G1 X159.243 Y137.633 E.04541
G1 X161.163 Y137.651 E.06629
G1 X163.055 Y138.012 E.0665
G1 X163.764 Y138.241 E.02572
G1 X165.509 Y139.057 E.06651
G1 X166.498 Y139.707 E.04086
G1 X167.937 Y140.988 E.06652
G1 X168.428 Y141.548 E.02571
G1 X169.507 Y143.143 E.06649
G1 X170.022 Y144.209 E.04088
G1 X170.601 Y146.046 E.0665
G1 X170.734 Y146.778 E.02569
G1 X170.843 Y148.701 E.0665
G1 X170.738 Y149.879 E.04083
G1 X170.293 Y151.753 E.0665
G1 X170.032 Y152.45 E.0257
G1 X169.14 Y154.156 E.06647
G1 X167.957 Y155.675 E.06648
G1 X166.885 Y156.689 E.05095
G1 X154.77 Y166.767 E.5441
G1 X153.421 Y167.69 E.05644
G1 X152.766 Y168.044 E.02571
G1 X151.679 Y168.511 E.04085
G1 X149.818 Y169.007 E.0665
G1 X147.898 Y169.163 E.06651
G1 X147.154 Y169.131 E.02571
G1 X145.255 Y168.809 E.0665
G1 X144.129 Y168.446 E.04085
G1 X142.401 Y167.595 E.06651
G1 X141.779 Y167.186 E.0257
G1 X140.314 Y165.936 E.06649
G1 X139.093 Y164.441 E.06665
G1 X134.154 Y156.187 E.33211
G1 X133.416 Y154.415 E.06628
G1 X133.003 Y152.534 E.06649
G1 X132.934 Y150.609 E.06651
G1 X132.999 Y149.867 E.02572
G1 X133.406 Y147.984 E.06652
G1 X134.142 Y146.205 E.06647
G1 X134.747 Y145.188 E.04086
G1 X135.842 Y143.839 E.05999
M204 S3500
G1 X135.842 Y143.839 F4200
G1 X136.21 Y144.148
M204 S1000
G1 F1800
G1 X136.542 Y143.752 E.01784
G1 X137.983 Y142.6 E.0637
G1 X139.607 Y141.724 E.06371
G1 X141.042 Y141.24 E.05229
G1 X158.019 Y138.267 E.59508
G1 X159.987 Y138.06 E.06832
G1 X161.499 Y138.145 E.05229
G1 X162.959 Y138.463 E.05159
G1 X164.994 Y139.285 E.07578
G1 X166.517 Y140.291 E.06302
G1 X167.623 Y141.326 E.0523
G1 X168.948 Y143.075 E.07576
G1 X169.739 Y144.719 E.06299
G1 X170.157 Y146.175 E.0523
G1 X170.398 Y148.356 E.07576
G1 X170.234 Y150.172 E.06296
G1 X169.847 Y151.636 E.05228
G1 X168.935 Y153.632 E.07577
G1 X167.862 Y155.107 E.06298
G1 X166.589 Y156.335 E.06107
G1 X154.416 Y166.461 E.5467
G1 X152.859 Y167.489 E.06442
G1 X151.181 Y168.206 E.063
G1 X149.708 Y168.559 E.0523
G1 X147.539 Y168.703 E.07505
G1 X145.371 Y168.364 E.07576
G1 X143.936 Y167.88 E.05229
G1 X142.329 Y167.016 E.063
G1 X140.886 Y165.867 E.06369
G1 X139.658 Y164.461 E.06445
G1 X134.55 Y155.95 E.34272
G1 X133.845 Y154.247 E.06364
G1 X133.412 Y152.117 E.07505
G1 X133.456 Y149.922 E.0758
G1 X133.845 Y148.12 E.06365
G1 X134.384 Y146.727 E.05157
G1 X135.146 Y145.419 E.05227
G1 X136.172 Y144.194 E.05517
M204 S3500
G1 X136.172 Y144.194 F4200
G1 X136.522 Y144.488
M204 S1000
G1 F1800
G1 X136.86 Y144.085 E.01816
G1 X138.237 Y142.985 E.06085
G1 X139.788 Y142.148 E.06085
G1 X141.185 Y141.679 E.05088
G1 X158.097 Y138.722 E.59278
G1 X159.966 Y138.521 E.0649
G1 X161.437 Y138.602 E.05087
G1 X162.856 Y138.913 E.05016
G1 X164.776 Y139.691 E.07153
G1 X166.229 Y140.651 E.06013
G1 X167.304 Y141.659 E.05088
G1 X168.552 Y143.312 E.07151
G1 X169.307 Y144.881 E.06012
G1 X169.713 Y146.297 E.05086
G1 X169.936 Y148.356 E.07151
G1 X169.78 Y150.09 E.06011
G1 X169.402 Y151.513 E.05084
G1 X168.539 Y153.395 E.07149
G1 X167.515 Y154.804 E.06014
G1 X166.294 Y155.98 E.05853
G1 X154.128 Y166.1 E.54638
G1 X152.64 Y167.082 E.06156
G1 X151.039 Y167.767 E.06012
G1 X149.606 Y168.109 E.05087
G1 X147.56 Y168.242 E.07079
G1 X145.514 Y167.925 E.07148
G1 X144.117 Y167.456 E.05088
G1 X142.584 Y166.631 E.06011
G1 X141.204 Y165.533 E.06089
G1 X140.031 Y164.19 E.06157
G1 X134.946 Y155.714 E.34127
G1 X134.277 Y154.085 E.0608
G1 X133.871 Y152.075 E.0708
G1 X133.91 Y150.005 E.07148
G1 X134.277 Y148.283 E.06079
G1 X134.8 Y146.928 E.05015
G1 X135.543 Y145.656 E.05086
G1 X136.484 Y144.534 E.05056
M204 S3500
G1 E-.5 F2400
G1 X136.484 Y144.534 F4200
G1 X148.784 Y146.792
G1 E.5 F2400
M204 S1000
G1 F1800
G1 X148.806 Y146.684 E.00381
G1 X148.861 Y146.505 E.00647
G1 X148.982 Y146.227 E.01047
G1 X149.086 Y146.05 E.00709
G1 X149.14 Y145.974 E.00322
G1 X149.506 Y145.533 E.01979
G1 X149.67 Y145.385 E.00763
G1 X149.89 Y145.229 E.00931
G1 X149.984 Y145.171 E.00381
G1 X150.183 Y145.077 E.0076
G1 X151.147 Y144.736 E.0353
G1 X151.225 Y144.713 E.00281
G1 X151.429 Y144.673 E.00718
G1 X151.664 Y144.65 E.00815
G1 X151.828 Y144.65 E.00566
G1 X151.924 Y144.657 E.00332
G1 X152.419 Y144.729 E.01727
G1 X152.604 Y144.78 E.00663
G1 X152.85 Y144.878 E.00914
G1 X152.996 Y144.953 E.00567
G1 X153.078 Y145.004 E.00333
G1 X153.685 Y145.433 E.02566
G1 X153.831 Y145.558 E.00664
G1 X154.035 Y145.783 E.01049
G1 X154.148 Y145.939 E.00665
G1 X154.197 Y146.022 E.00333
G1 X154.408 Y146.431 E.01589
G1 X154.489 Y146.648 E.008
G1 X154.546 Y146.877 E.00815
G1 X154.563 Y146.972 E.00333
G1 X154.581 Y147.164 E.00666
G1 X154.581 Y148.186 E.03529
G1 X154.573 Y148.296 E.00381
G1 X154.539 Y148.498 E.00707
G1 X154.461 Y148.773 E.00987
G1 X154.376 Y148.977 E.00763
G1 X154.082 Y149.469 E.01979
G1 X154.018 Y149.559 E.00381
G1 X153.896 Y149.702 E.00649
G1 X153.7 Y149.887 E.00931
G1 X153.524 Y150.021 E.00764
G1 X153.43 Y150.078 E.0038
G1 X152.665 Y150.474 E.02974
G1 X152.459 Y150.554 E.00763
G1 X152.353 Y150.584 E.0038
G1 X152.089 Y150.638 E.0093
G1 X151.869 Y150.656 E.00762
G1 X151.297 Y150.62 E.01979
G1 X151.187 Y150.605 E.00383
G1 X150.987 Y150.557 E.0071
G1 X150.678 Y150.443 E.01137
G1 X150.551 Y150.378 E.00493
G1 X150.456 Y150.321 E.00383
G1 X149.546 Y149.677 E.03849
G1 X149.473 Y149.618 E.00324
G1 X149.326 Y149.476 E.00706
G1 X149.155 Y149.267 E.00932
G1 X149.091 Y149.177 E.00381
G1 X148.983 Y148.985 E.00761
G1 X148.786 Y148.529 E.01715
G1 X148.749 Y148.426 E.00378
G1 X148.697 Y148.211 E.00764
G1 X148.665 Y147.976 E.00819
G1 X148.658 Y147.866 E.00381
G1 X148.665 Y147.646 E.0076
G1 X148.775 Y146.852 E.02768
M204 S3500
G1 X148.775 Y146.852 F4200
G1 X149.232 Y146.915
M204 S1000
G1 F1800
G1 X149.24 Y146.863 E.00182
G1 X149.294 Y146.665 E.00709
G1 X149.394 Y146.435 E.00866
G1 X149.474 Y146.3 E.00542
G1 X149.839 Y145.852 E.01995
G1 X149.956 Y145.747 E.00543
G1 X150.149 Y145.61 E.00817
G1 X150.287 Y145.534 E.00544
G1 X150.345 Y145.509 E.00218
G1 X151.335 Y145.161 E.03623
G1 X151.482 Y145.131 E.00518
G1 X151.729 Y145.109 E.00856
G1 X151.868 Y145.115 E.0048
G1 X152.324 Y145.181 E.01591
G1 X152.456 Y145.217 E.00472
G1 X152.66 Y145.298 E.00758
G1 X152.817 Y145.385 E.0062
G1 X153.455 Y145.84 E.02706
G1 X153.555 Y145.934 E.00474
G1 X153.716 Y146.124 E.0086
G1 X153.791 Y146.24 E.00477
G1 X153.988 Y146.623 E.01487
G1 X154.047 Y146.779 E.00576
G1 X154.096 Y146.98 E.00714
G1 X154.119 Y147.171 E.00664
G1 X154.119 Y148.178 E.03477
G1 X154.093 Y148.382 E.0071
G1 X154.025 Y148.624 E.00868
G1 X153.964 Y148.769 E.00543
G1 X153.692 Y149.222 E.01824
G1 X153.656 Y149.274 E.00218
G1 X153.563 Y149.383 E.00495
G1 X153.391 Y149.545 E.00816
G1 X153.264 Y149.639 E.00546
G1 X153.211 Y149.671 E.00214
G1 X152.46 Y150.06 E.0292
G1 X152.402 Y150.085 E.00218
G1 X152.252 Y150.134 E.00545
G1 X152.021 Y150.181 E.00814
G1 X151.864 Y150.194 E.00544
G1 X151.336 Y150.161 E.01827
G1 X151.274 Y150.152 E.00216
G1 X151.121 Y150.116 E.00543
G1 X150.867 Y150.022 E.00935
G1 X150.716 Y149.94 E.00593
G1 X149.78 Y149.274 E.03966
G1 X149.667 Y149.165 E.00542
G1 X149.517 Y148.982 E.00817
G1 X149.432 Y148.85 E.00542
G1 X149.403 Y148.794 E.00218
G1 X149.191 Y148.294 E.01875
G1 X149.153 Y148.141 E.00544
G1 X149.119 Y147.858 E.00984
G1 X149.123 Y147.701 E.00542
G1 X149.224 Y146.975 E.02531
M204 S3500
G1 X149.224 Y146.975 F4200
G1 X149.681 Y147.038
M204 S1000
G1 F1800
G1 X149.695 Y146.935 E.00359
G1 X149.72 Y146.843 E.00329
G1 X149.808 Y146.64 E.00764
G1 X149.856 Y146.558 E.00328
G1 X150.169 Y146.174 E.0171
G1 X150.239 Y146.111 E.00325
G1 X150.408 Y145.992 E.00714
G1 X150.506 Y145.941 E.00381
G1 X151.455 Y145.607 E.03474
G1 X151.536 Y145.59 E.00286
G1 X151.715 Y145.571 E.00622
G1 X151.797 Y145.572 E.00283
G1 X152.225 Y145.631 E.01492
G1 X152.305 Y145.653 E.00286
G1 X152.472 Y145.719 E.0062
G1 X152.557 Y145.765 E.00334
G1 X153.151 Y146.187 E.02516
G1 X153.212 Y146.243 E.00286
G1 X153.33 Y146.378 E.00619
G1 X153.377 Y146.446 E.00285
G1 X153.57 Y146.817 E.01444
G1 X153.604 Y146.907 E.00332
G1 X153.646 Y147.082 E.00621
G1 X153.658 Y147.178 E.00334
G1 X153.658 Y148.17 E.03425
G1 X153.646 Y148.264 E.00327
G1 X153.587 Y148.478 E.00766
G1 X153.55 Y148.565 E.00326
G1 X153.302 Y148.976 E.01657
G1 X153.232 Y149.061 E.0038
G1 X153.082 Y149.202 E.00711
G1 X152.992 Y149.265 E.00379
G1 X152.24 Y149.653 E.02922
G1 X152.151 Y149.684 E.00325
G1 X151.949 Y149.725 E.00712
G1 X151.855 Y149.733 E.00326
G1 X151.36 Y149.699 E.01713
G1 X151.268 Y149.678 E.00326
G1 X151.06 Y149.603 E.00763
G1 X150.976 Y149.558 E.00329
G1 X150.079 Y148.923 E.03795
G1 X150.01 Y148.857 E.0033
G1 X149.881 Y148.697 E.0071
G1 X149.823 Y148.603 E.00381
G1 X149.634 Y148.162 E.01657
G1 X149.609 Y148.071 E.00326
G1 X149.58 Y147.851 E.00766
G1 X149.582 Y147.756 E.00328
G1 X149.673 Y147.097 E.02297
M204 S3500
G1 X149.673 Y147.097 F4200
G1 X150.13 Y147.161
M204 S1000
G1 F1800
G1 X150.149 Y147.021 E.00488
G1 X150.158 Y146.991 E.00108
G1 X150.238 Y146.819 E.00655
G1 X150.501 Y146.496 E.01438
G1 X150.524 Y146.474 E.0011
G1 X150.682 Y146.369 E.00655
G1 X151.576 Y146.052 E.03275
G1 X151.741 Y146.033 E.00573
G1 X152.128 Y146.083 E.01347
G1 X152.283 Y146.141 E.00571
G1 X152.857 Y146.543 E.0242
G1 X152.984 Y146.688 E.00666
G1 X153.151 Y147.011 E.01255
G1 X153.196 Y147.198 E.00664
G1 X153.196 Y148.147 E.03277
G1 X153.192 Y148.178 E.00108
G1 X153.137 Y148.359 E.00653
G1 X152.92 Y148.716 E.01442
G1 X152.9 Y148.74 E.00108
G1 X152.758 Y148.866 E.00655
G1 X152.064 Y149.226 E.02699
G1 X151.879 Y149.269 E.00656
G1 X151.847 Y149.271 E.00111
G1 X151.431 Y149.242 E.0144
G1 X151.251 Y149.183 E.00654
G1 X151.223 Y149.168 E.0011
G1 X150.377 Y148.569 E.03579
G1 X150.254 Y148.425 E.00654
G1 X150.237 Y148.398 E.0011
G1 X150.072 Y148.015 E.0144
G1 X150.042 Y147.828 E.00654
G1 X150.042 Y147.796 E.0011
G1 X150.122 Y147.22 E.02008
M204 S3500
G1 X150.122 Y147.22 F4200
G1 X150.579 Y147.284
M204 S1000
G1 F1800
G1 X150.6 Y147.132 E.0053
G1 X150.625 Y147.074 E.00218
G1 X150.829 Y146.824 E.01114
G1 X150.881 Y146.788 E.00218
G1 X151.691 Y146.501 E.02967
G1 X151.746 Y146.496 E.00191
G1 X152.023 Y146.534 E.00965
G1 X152.075 Y146.555 E.00194
G1 X152.557 Y146.896 E.02039
G1 X152.593 Y146.937 E.00188
G1 X152.722 Y147.186 E.00968
G1 X152.735 Y147.24 E.00192
G1 X152.735 Y148.099 E.02966
G1 X152.718 Y148.16 E.00219
G1 X152.551 Y148.435 E.01111
G1 X152.504 Y148.479 E.00222
G1 X151.894 Y148.794 E.0237
G1 X151.832 Y148.807 E.00219
G1 X151.51 Y148.785 E.01114
G1 X151.451 Y148.764 E.00216
G1 X150.682 Y148.22 E.03252
G1 X150.642 Y148.171 E.00218
G1 X150.514 Y147.875 E.01113
G1 X150.505 Y147.813 E.00216
G1 X150.57 Y147.343 E.01638
M204 S3500
G1 X150.57 Y147.343 F4200
G1 X151.027 Y147.406
M204 S1000
G1 F1800
G1 X151.043 Y147.291 E.00401
G1 X151.125 Y147.191 E.00447
G1 X151.765 Y146.964 E.02345
