; generated by PrusaSlicer 2.9.0 on 2025-02-04 at 12:01:26 UTC


;
;

;
;
; 

; external perimeters extrusion width = 0.40mm
; perimeters extrusion width = 0.40mm
; infill extrusion width = 0.64mm
; solid infill extrusion width = 0.56mm
; top infill extrusion width = 0.40mm
; support material extrusion width = 0.46mm
; first layer extrusion width = 0.50mm

M73 P0 R32

; printing object xyzCalibration_cube.stl id:0 copy 0
; stop printing object xyzCalibration_cube.stl id:0 copy 0

;TYPE:Custom
M104 S0 ; Stops PS/SS from sending temp waits separately
M140 S0
M117
PRINT_START BED=70 HOTEND=205
PURGE_LINE

;; Guide: https://ellis3dp.com/Print-Tuning-Guide/articles/passing_slicer_variables.html#slicer-start-g-code
G21 ; set units to millimeters
G90 ; use absolute coordinates
M83 ; use relative distances for extrusion
; Filament gcode
M107
;LAYER_CHANGE
;Z:0.2
;HEIGHT:0.2
G1 E-.5 F2400
G1 Z0.300 F4200
G1 X133.512 Y135.317
G1 Z0.300
M73 P0 R31
G1 E.5 F2400
M204 S1000
;TYPE:Skirt/Brim
;WIDTH:0.5
G1 F1800
G1 X135.709 Y133.15 E.11728
G1 X142.498 Y127.558 E.33428
G1 X144.083 Y126.387 E.0749
G1 X145.117 Y125.828 E.04467
G1 X146.992 Y125.138 E.07593
G1 X148.96 Y124.793 E.07594
G1 X150.959 Y124.806 E.07598
G1 X151.776 Y124.915 E.03133
G1 X153.707 Y125.429 E.07595
G1 X155.515 Y126.279 E.07593
G1 X156.847 Y127.179 E.0611
G1 X164.245 Y133.112 E.36042
G1 X166.773 Y135.617 E.13526
G1 X172.517 Y142.23 E.33291
G1 X173.444 Y143.477 E.05905
G1 X173.864 Y144.178 E.03106
G1 X174.376 Y145.237 E.04471
G1 X174.981 Y147.141 E.07593
G1 X175.237 Y149.123 E.07595
G1 X175.238 Y149.948 E.03136
G1 X174.989 Y151.93 E.07592
G1 X174.678 Y153.064 E.04469
G1 X174.389 Y153.836 E.03133
G1 X173.459 Y155.605 E.07596
G1 X166.953 Y164.162 E.40855
G1 X164.619 Y166.553 E.12699
G1 X163.02 Y167.592 E.07247
G1 X161.367 Y167.9 E.06391
G1 X138.633 Y167.9 E.86404
G1 X136.767 Y167.504 E.0725
G1 X135.381 Y166.553 E.06388
G1 X133.447 Y164.619 E.10395
G1 X132.408 Y163.02 E.07247
G1 X132.1 Y161.367 E.06391
G1 X132.1 Y138.633 E.86404
G1 X132.496 Y136.767 E.0725
G1 X133.447 Y135.381 E.06388
G1 X133.469 Y135.359 E.00118
M204 S3500
G1 X133.469 Y135.359 F4200
G1 X133.79 Y135.684
M204 S1000
G1 F1800
G1 X135.999 Y133.502 E.11801
G1 X142.783 Y127.915 E.33402
G1 X144.3 Y126.789 E.0718
G1 X145.334 Y126.23 E.04467
G1 X147.134 Y125.572 E.07284
G1 X149.022 Y125.246 E.07282
G1 X150.939 Y125.263 E.07286
G1 X151.675 Y125.361 E.02822
G1 X153.528 Y125.849 E.07283
G1 X155.264 Y126.661 E.07284
G1 X156.561 Y127.536 E.05946
G1 X163.959 Y133.468 E.3604
G1 X166.428 Y135.917 E.13217
G1 X172.172 Y142.53 E.33291
G1 X173.452 Y144.377 E.08541
G1 X173.964 Y145.436 E.04471
G1 X174.541 Y147.263 E.07282
G1 X174.782 Y149.165 E.07287
G1 X174.783 Y149.907 E.0282
G1 X174.679 Y151.078 E.04468
G1 X174.237 Y152.943 E.07285
G1 X173.977 Y153.639 E.02824
G1 X173.089 Y155.337 E.07283
G1 X166.59 Y163.884 E.40808
G1 X164.296 Y166.229 E.12468
G1 X162.768 Y167.199 E.06879
G1 X161.367 Y167.443 E.05405
G1 X138.633 Y167.443 E.86404
G1 X136.867 Y167.048 E.06878
G1 X135.704 Y166.229 E.05406
G1 X133.771 Y164.296 E.1039
G1 X132.802 Y162.768 E.06877
G1 X132.557 Y161.367 E.05405
G1 X132.557 Y138.633 E.86404
G1 X132.952 Y136.867 E.06878
G1 X133.752 Y135.73 E.05284
M204 S3500
G1 X133.752 Y135.73 F4200
G1 X134.094 Y136.027
M204 S1000
G1 F1800
G1 X136.29 Y133.855 E.11739
G1 X144.238 Y127.358 E.39016
G1 X145.855 Y126.486 E.06982
G1 X147.282 Y126.005 E.05723
G1 X147.946 Y125.853 E.02589
G1 X149.771 Y125.668 E.06972
G1 X151.254 Y125.749 E.05645
G1 X152.726 Y126.068 E.05724
G1 X154.752 Y126.886 E.08304
G1 X156.267 Y127.886 E.06899
G1 X163.673 Y133.825 E.3608
G1 X166.083 Y136.216 E.12903
G1 X171.826 Y142.83 E.33291
G1 X172.897 Y144.308 E.06937
G1 X173.795 Y146.278 E.08228
G1 X174.175 Y147.714 E.05646
G1 X174.327 Y149.212 E.05723
G1 X174.224 Y151.044 E.06974
G1 X173.692 Y153.142 E.08226
G1 X172.897 Y154.797 E.06978
G1 X166.227 Y163.606 E.41994
G1 X163.973 Y165.906 E.12239
G1 X162.521 Y166.8 E.06481
G1 X161.367 Y166.986 E.04443
G1 X138.633 Y166.986 E.86404
G1 X136.974 Y166.591 E.06482
G1 X136.027 Y165.906 E.04442
G1 X134.094 Y163.973 E.1039
G1 X133.2 Y162.521 E.06481
G1 X133.014 Y161.367 E.04443
G1 X133.014 Y138.633 E.86404
G1 X133.409 Y136.974 E.06482
G1 X134.059 Y136.076 E.04213
M204 S3500
G1 X134.059 Y136.076 F4200
G1 X134.417 Y136.35
M204 S1000
G1 F1800
G1 X136.58 Y134.208 E.1157
G1 X144.49 Y127.739 E.38836
G1 X146.034 Y126.906 E.06668
G1 X147.423 Y126.44 E.05568
G1 X148.007 Y126.306 E.02277
G1 X149.75 Y126.124 E.06661
G1 X151.193 Y126.202 E.05492
G1 X152.624 Y126.514 E.05566
G1 X154.535 Y127.288 E.07836
G1 X155.982 Y128.243 E.06589
G1 X163.387 Y134.181 E.36075
G1 X165.738 Y136.516 E.12593
G1 X171.481 Y143.129 E.33288
G1 X172.505 Y144.542 E.06632
G1 X173.354 Y146.399 E.0776
G1 X173.726 Y147.795 E.05491
G1 X173.872 Y149.253 E.05569
G1 X173.768 Y151.003 E.06663
G1 X173.264 Y152.981 E.07758
G1 X172.505 Y154.563 E.06669
G1 X165.864 Y163.329 E.41798
G1 X163.65 Y165.583 E.12008
G1 X162.279 Y166.397 E.0606
M73 P1 R31
G1 X161.367 Y166.529 E.03502
G1 X138.633 Y166.529 E.86404
G1 X137.088 Y166.135 E.0606
G1 X136.35 Y165.583 E.03503
G1 X134.417 Y163.65 E.1039
G1 X133.603 Y162.279 E.0606
G1 X133.471 Y161.367 E.03502
G1 X133.471 Y138.633 E.86404
G1 X133.865 Y137.088 E.0606
G1 X134.381 Y136.398 E.03275
M204 S3500
G1 E-.5 F2400
G1 X134.381 Y136.398 F4200
G1 X137.567 Y138.527
G1 E.5 F2400
M204 S1000
G1 F1800
G1 X137.652 Y138.4 E.00581
G1 X137.76 Y138.263 E.00663
G1 X138.263 Y137.76 E.02704
G1 X138.403 Y137.65 E.00677
G1 X138.603 Y137.52 E.00907
G1 X138.748 Y137.446 E.00619
G1 X139.157 Y137.282 E.01675
G1 X139.296 Y137.243 E.00549
G1 X139.466 Y137.209 E.00659
G1 X139.657 Y137.188 E.0073
G1 X160.386 Y137.191 E.78783
G1 X160.512 Y137.205 E.00482
G1 X160.741 Y137.252 E.00888
G1 X160.844 Y137.282 E.00408
G1 X161.248 Y137.444 E.01654
G1 X161.452 Y137.553 E.00879
G1 X161.631 Y137.674 E.00821
G1 X161.714 Y137.741 E.00405
G1 X162.202 Y138.222 E.02604
G1 X162.35 Y138.403 E.00889
G1 X162.48 Y138.603 E.00907
G1 X162.554 Y138.748 E.00619
G1 X162.714 Y139.144 E.01623
G1 X162.757 Y139.297 E.00604
G1 X162.792 Y139.471 E.00675
G1 X162.811 Y139.629 E.00605
G1 X162.814 Y160.311 E.78605
G1 X162.794 Y160.512 E.00768
G1 X162.758 Y160.699 E.00724
G1 X162.691 Y160.92 E.00878
G1 X162.518 Y161.326 E.01677
G1 X162.447 Y161.452 E.0055
G1 X162.348 Y161.6 E.00677
G1 X162.24 Y161.737 E.00663
G1 X161.737 Y162.24 E.02704
G1 X161.597 Y162.35 E.00677
G1 X161.397 Y162.48 E.00907
G1 X161.252 Y162.554 E.00619
G1 X160.843 Y162.718 E.01675
G1 X160.704 Y162.757 E.00549
G1 X160.534 Y162.791 E.00659
G1 X160.304 Y162.814 E.00879
G1 X139.689 Y162.814 E.7835
G1 X139.488 Y162.794 E.00768
G1 X139.301 Y162.758 E.00724
G1 X139.08 Y162.691 E.00878
G1 X138.674 Y162.518 E.01677
G1 X138.548 Y162.447 E.0055
G1 X138.4 Y162.348 E.00677
G1 X138.263 Y162.24 E.00663
G1 X137.76 Y161.737 E.02704
G1 X137.65 Y161.597 E.00677
G1 X137.52 Y161.397 E.00907
G1 X137.446 Y161.252 E.00619
G1 X137.282 Y160.843 E.01675
G1 X137.243 Y160.704 E.00549
G1 X137.209 Y160.534 E.00659
G1 X137.186 Y160.304 E.00879
G1 X137.186 Y139.689 E.7835
G1 X137.206 Y139.488 E.00768
G1 X137.242 Y139.301 E.00724
G1 X137.309 Y139.08 E.00878
G1 X137.482 Y138.674 E.01677
G1 X137.536 Y138.578 E.00419
M204 S3500
G1 X137.536 Y138.578 F4200
G1 X137.934 Y138.801
M204 S1000
G1 F1800
G1 X137.938 Y138.794 E.00031
G1 X138.026 Y138.662 E.00603
G1 X138.103 Y138.566 E.00468
G1 X138.566 Y138.103 E.02489
G1 X138.663 Y138.026 E.00471
G1 X138.829 Y137.917 E.00755
G1 X138.931 Y137.865 E.00435
G1 X139.289 Y137.719 E.01469
G1 X139.395 Y137.689 E.00419
G1 X139.55 Y137.659 E.006
G1 X139.687 Y137.644 E.00524
G1 X160.304 Y137.643 E.78358
G1 X160.449 Y137.658 E.00554
G1 X160.623 Y137.694 E.00675
G1 X160.745 Y137.731 E.00485
G1 X161.068 Y137.865 E.01329
G1 X161.205 Y137.938 E.0059
G1 X161.353 Y138.037 E.00677
G1 X161.459 Y138.126 E.00526
G1 X161.897 Y138.566 E.0236
G1 X161.974 Y138.663 E.00471
G1 X162.083 Y138.829 E.00755
G1 X162.135 Y138.931 E.00435
G1 X162.281 Y139.289 E.01469
G1 X162.311 Y139.395 E.00419
G1 X162.342 Y139.55 E.00601
G1 X162.355 Y139.672 E.00466
G1 X162.357 Y160.294 E.78377
G1 X162.342 Y160.449 E.00592
G1 X162.303 Y160.637 E.0073
G1 X162.265 Y160.754 E.00468
G1 X162.115 Y161.11 E.01468
G1 X162.062 Y161.206 E.00417
G1 X161.974 Y161.338 E.00603
G1 X161.897 Y161.434 E.00468
G1 X161.434 Y161.897 E.02489
G1 X161.337 Y161.974 E.00471
G1 X161.171 Y162.083 E.00755
G1 X161.069 Y162.135 E.00435
G1 X160.711 Y162.281 E.01469
G1 X160.605 Y162.311 E.00419
G1 X160.45 Y162.341 E.006
G1 X160.295 Y162.357 E.00592
G1 X139.706 Y162.357 E.78251
G1 X139.551 Y162.342 E.00592
G1 X139.363 Y162.303 E.0073
G1 X139.246 Y162.265 E.00468
G1 X138.89 Y162.115 E.01468
G1 X138.794 Y162.062 E.00417
G1 X138.662 Y161.974 E.00603
G1 X138.566 Y161.897 E.00468
G1 X138.103 Y161.434 E.02489
G1 X138.026 Y161.337 E.00471
G1 X137.917 Y161.171 E.00755
G1 X137.865 Y161.069 E.00435
G1 X137.719 Y160.711 E.01469
G1 X137.689 Y160.605 E.00419
G1 X137.659 Y160.45 E.006
G1 X137.643 Y160.295 E.00592
G1 X137.643 Y139.706 E.78251
G1 X137.658 Y139.551 E.00592
G1 X137.697 Y139.363 E.0073
G1 X137.735 Y139.246 E.00468
G1 X137.885 Y138.89 E.01468
G1 X137.905 Y138.853 E.0016
M204 S3500
G1 X137.905 Y138.853 F4200
G1 X138.307 Y139.071
M204 S1000
G1 F1800
G1 X138.324 Y139.039 E.00138
G1 X138.401 Y138.925 E.00523
G1 X138.453 Y138.86 E.00316
G1 X138.868 Y138.446 E.02228
G1 X138.924 Y138.401 E.00273
G1 X139.056 Y138.314 E.00601
G1 X139.116 Y138.283 E.00257
G1 X139.424 Y138.156 E.01266
G1 X139.494 Y138.136 E.00277
G1 X139.634 Y138.108 E.00543
G1 X139.716 Y138.1 E.00313
G1 X160.298 Y138.101 E.78225
G1 X160.371 Y138.109 E.00279
G1 X160.506 Y138.136 E.00523
G1 X160.576 Y138.156 E.00277
G1 X160.888 Y138.285 E.01283
G1 X160.961 Y138.324 E.00315
G1 X161.075 Y138.401 E.00523
G1 X161.14 Y138.453 E.00316
G1 X161.554 Y138.868 E.02228
G1 X161.599 Y138.924 E.00273
G1 X161.686 Y139.056 E.00601
G1 X161.717 Y139.116 E.00257
G1 X161.844 Y139.424 E.01266
G1 X161.864 Y139.494 E.00277
G1 X161.891 Y139.629 E.00523
G1 X161.899 Y139.702 E.00279
G1 X161.9 Y160.288 E.7824
G1 X161.891 Y160.371 E.00317
G1 X161.864 Y160.51 E.00538
G1 X161.839 Y160.589 E.00315
G1 X161.711 Y160.897 E.01268
G1 X161.676 Y160.961 E.00277
G1 X161.599 Y161.075 E.00523
G1 X161.547 Y161.14 E.00316
G1 X161.132 Y161.554 E.02228
G1 X161.076 Y161.599 E.00273
G1 X160.944 Y161.686 E.00601
G1 X160.884 Y161.717 E.00257
G1 X160.576 Y161.844 E.01266
G1 X160.506 Y161.864 E.00277
G1 X160.366 Y161.892 E.00543
G1 X160.284 Y161.9 E.00313
G1 X139.712 Y161.9 E.78187
G1 X139.629 Y161.891 E.00317
G1 X139.49 Y161.864 E.00538
G1 X139.411 Y161.839 E.00315
G1 X139.103 Y161.711 E.01268
G1 X139.039 Y161.676 E.00277
G1 X138.925 Y161.599 E.00523
G1 X138.86 Y161.547 E.00316
G1 X138.446 Y161.132 E.02228
G1 X138.401 Y161.076 E.00273
G1 X138.314 Y160.944 E.00601
G1 X138.283 Y160.884 E.00257
G1 X138.156 Y160.576 E.01266
G1 X138.136 Y160.506 E.00277
G1 X138.108 Y160.366 E.00543
G1 X138.1 Y160.284 E.00313
G1 X138.1 Y139.712 E.78187
G1 X138.109 Y139.629 E.00317
G1 X138.139 Y139.481 E.00574
G1 X138.161 Y139.411 E.00279
G1 X138.28 Y139.124 E.01181
M204 S3500
G1 X138.28 Y139.124 F4200
G1 X138.701 Y139.302
M204 S1000
G1 F1800
G1 X138.788 Y139.172 E.00595
G1 X139.172 Y138.788 E.02064
G1 X139.283 Y138.711 E.00513
G1 X139.574 Y138.588 E.01201
G1 X139.729 Y138.557 E.00601
G1 X160.271 Y138.557 E.78073
G1 X160.426 Y138.588 E.00601
G1 X160.717 Y138.711 E.01201
G1 X160.828 Y138.788 E.00513
G1 X161.212 Y139.172 E.02064
G1 X161.299 Y139.302 E.00595
G1 X161.412 Y139.574 E.01119
G1 X161.443 Y139.729 E.00601
G1 X161.443 Y160.271 E.78073
G1 X161.412 Y160.426 E.00601
G1 X161.299 Y160.698 E.01119
G1 X161.212 Y160.828 E.00595
G1 X160.828 Y161.212 E.02064
G1 X160.717 Y161.289 E.00513
G1 X160.426 Y161.412 E.01201
G1 X160.271 Y161.443 E.00601
G1 X139.729 Y161.443 E.78073
G1 X139.574 Y161.412 E.00601
G1 X139.302 Y161.299 E.01119
G1 X139.172 Y161.212 E.00595
G1 X138.788 Y160.828 E.02064
G1 X138.711 Y160.717 E.00513
G1 X138.588 Y160.426 E.01201
G1 X138.557 Y160.271 E.00601
G1 X138.557 Y139.729 E.78073
G1 X138.588 Y139.574 E.00601
G1 X138.678 Y139.358 E.00889
M204 S3500
G1 X138.678 Y139.358 F4200
G1 X139.1 Y139.533
M204 S1000
G1 F1800
G1 X139.11 Y139.509 E.00099
G1 X139.135 Y139.471 E.00173
G1 X139.471 Y139.135 E.01806
G1 X139.509 Y139.11 E.00173
G1 X139.718 Y139.023 E.0086
G1 X139.762 Y139.014 E.00171
G1 X160.238 Y139.014 E.77822
G1 X160.282 Y139.023 E.00171
G1 X160.491 Y139.11 E.0086
G1 X160.529 Y139.135 E.00173
G1 X160.865 Y139.471 E.01806
G1 X160.89 Y139.509 E.00173
G1 X160.977 Y139.718 E.0086
G1 X160.986 Y139.762 E.00171
G1 X160.986 Y160.238 E.77822
G1 X160.977 Y160.282 E.00171
G1 X160.89 Y160.491 E.0086
G1 X160.865 Y160.529 E.00173
G1 X160.529 Y160.865 E.01806
G1 X160.491 Y160.89 E.00173
G1 X160.282 Y160.977 E.0086
G1 X160.238 Y160.986 E.00171
G1 X139.762 Y160.986 E.77822
G1 X139.718 Y160.977 E.00171
G1 X139.509 Y160.89 E.0086
G1 X139.471 Y160.865 E.00173
G1 X139.135 Y160.529 E.01806
G1 X139.11 Y160.491 E.00173
G1 X139.023 Y160.282 E.0086
G1 X139.014 Y160.238 E.00171
G1 X139.014 Y139.762 E.77822
G1 X139.023 Y139.718 E.00171
G1 X139.077 Y139.588 E.00535
M204 S3500
G1 X139.077 Y139.588 F4200
G1 X139.499 Y139.763
M204 S1000
G1 F1800
G1 X139.506 Y139.746 E.0007
G1 X139.746 Y139.506 E.0129
G1 X139.83 Y139.471 E.00346
G1 X160.17 Y139.471 E.77305
G1 X160.254 Y139.506 E.00346
G1 X160.494 Y139.746 E.0129
G1 X160.529 Y139.83 E.00346
G1 X160.529 Y160.17 E.77305
G1 X160.494 Y160.254 E.00346
G1 X160.254 Y160.494 E.0129
G1 X160.17 Y160.529 E.00346
G1 X139.83 Y160.529 E.77305
G1 X139.746 Y160.494 E.00346
M73 P2 R31
G1 X139.506 Y160.254 E.0129
G1 X139.471 Y160.17 E.00346
G1 X139.471 Y139.83 E.77305
G1 X139.476 Y139.819 E.00046
M204 S3500
G1 E-.5 F2400
G1 X139.476 Y139.819 F4200
; printing object xyzCalibration_cube.stl id:0 copy 0
G1 X164.295 Y143.253
G1 E.5 F2400
M204 S1000
;TYPE:Support material
G1 F1800
G1 X164.949 Y143.282 E.02488
G1 X166.055 Y143.534 E.04311
G1 X167.098 Y143.98 E.04311
G1 X168.045 Y144.605 E.04312
G1 X168.865 Y145.389 E.04312
G1 X169.532 Y146.307 E.04313
G1 X170.024 Y147.329 E.04311
G1 X170.326 Y148.423 E.04313
G1 X170.428 Y149.553 E.04312
G1 X170.326 Y150.683 E.04312
G1 X170.024 Y151.776 E.0431
G1 X169.532 Y152.798 E.04311
G1 X168.865 Y153.716 E.04313
G1 X168.045 Y154.5 E.04312
G1 X167.098 Y155.125 E.04312
G1 X166.055 Y155.571 E.04311
G1 X164.949 Y155.823 E.04311
G1 X163.815 Y155.874 E.04314
G1 X163.55 Y155.838 E.01016
G1 X163.55 Y143.267 E.47778
G1 X163.815 Y143.231 E.01016
G1 X164.226 Y143.25 E.01564
M204 S3500
G1 X164.226 Y143.25 F4200
G1 X169.807 Y151.754
M204 S1000
G1 F1800
G1 X169.807 Y148.088 E.13933
G1 X169.637 Y147.474 E.02421
G1 X169.299 Y146.771 E.02965
G1 X169.299 Y152.334 E.21143
G1 X169.177 Y152.587 E.01068
G1 X168.791 Y153.118 E.02495
G1 X168.791 Y145.987 E.27102
G1 X168.554 Y145.661 E.01532
G1 X168.283 Y145.402 E.01425
G1 X168.283 Y153.703 E.31549
G1 X167.775 Y154.185 E.02661
G1 X167.775 Y144.92 E.35213
G1 X167.267 Y144.585 E.02313
G1 X167.267 Y154.521 E.37763
G1 X166.902 Y154.762 E.01662
G1 X166.76 Y154.823 E.00587
G1 X166.76 Y144.283 E.40059
G1 X166.252 Y144.066 E.02099
G1 X166.252 Y155.04 E.41708
G1 X165.927 Y155.178 E.01342
G1 X165.744 Y155.22 E.00714
G1 X165.744 Y143.885 E.4308
G1 X165.236 Y143.77 E.0198
G1 X165.236 Y155.336 E.43958
G1 X164.893 Y155.414 E.01337
G1 X164.728 Y155.422 E.00628
G1 X164.728 Y143.684 E.44612
G1 X164.22 Y143.661 E.01933
G1 X164.22 Y155.65 E.45566
M204 S3500
G1 E-.5 F2400
G1 X164.22 Y155.65 F4200
G1 X159.4 Y146.767
G1 X159.4 Y140.6
G1 X156.054 Y140.6
G1 X150.085 Y129.6
G1 E.5 F2400
M204 S1000
G1 F1800
G1 X150.739 Y129.629 E.02488
G1 X151.845 Y129.882 E.04312
G1 X152.888 Y130.328 E.04311
G1 X153.835 Y130.953 E.04312
G1 X154.655 Y131.737 E.04312
G1 X155.322 Y132.654 E.0431
G1 X155.814 Y133.677 E.04314
G1 X156.116 Y134.77 E.0431
G1 X156.217 Y135.9 E.04312
G1 X156.168 Y136.45 E.02099
G1 X143.587 Y136.45 E.47816
G1 X143.587 Y135.333 E.04245
G1 X143.79 Y134.217 E.04311
G1 X144.188 Y133.154 E.04314
G1 X144.77 Y132.181 E.04309
G1 X145.516 Y131.326 E.04313
